X: 448
T: Drops of brandy
C:anon.
O:Ireland
B:Francis O'Neill: "The Dance Music of Ireland" (1907) no. 448
R:Hop, Slip jig
Z:Transcribed by Frank Nordberg - http://www.musicaviva.com
F:http://www.musicaviva.com/abc/tunes/ireland/oneill-1001/oneill-1001-044
8.abc
M:9/8
L:1/8
K:G
ded B(GB) BGB|ded BGB c2A| ded B(GB) BGB|cBc AFA c2A|ded B(GB) BGB|ded BG
B (cB)A|ded Bcd (gd)B|cBc AFA (cB)A||
||GBd g(dB) gdB|GBd gdB c2A|GBd g(dB) gdB|cBc AFA c2A|GBd g(dB) gdB|GBd g
dB (cB)A|GBd gb(a g)dB|cBc AFA (cB)A|]
W:
W:
W:  From Musica Viva - http://www.musicaviva.com
W:  the Internet center for free sheet music downloads.


